app/assets/images/follow-icon.svg

<svg width="27" height="26" viewBox="0 0 27 26" fill="none" xmlns="http://www.w3.org/2000/svg">
<path fill-rule="evenodd" clip-rule="evenodd" d="M27 9.91284L17.2922 9.06853L13.5 0L9.70785 9.06853L0 9.91284L7.36425 16.3814L5.157 26L13.5 20.8985L21.843 26L19.6357 16.3814L27 9.91284ZM13.5001 18.3314L8.42001 21.4377L9.76461 15.5795L5.27856 11.6412L11.1916 11.1266L13.5001 5.60368L15.8086 11.1266L21.7216 11.6412L17.2369 15.5795L18.5815 21.4377L13.5001 18.3314Z" fill="#005B9A"/>
</svg>

<svg width="27" height="26" fill="none" xmlns="http://www.w3.org/2000/svg"><path fill-rule="evenodd" clip-rule="evenodd" d="M27 9.913l-9.708-.844L13.5 0 9.708 9.069 0 9.913l7.364 6.468L5.157 26l8.343-5.102L21.843 26l-2.207-9.619L27 9.913zM13.5 18.33l-5.08 3.107 1.345-5.858-4.486-3.939 5.913-.514L13.5 5.604l2.309 5.523 5.913.514-4.485 3.938 1.345 5.859L13.5 18.33z" fill="#005B9A"/></svg>
